images/Ellipse-4.svg

<!-- Generated by IcoMoon.io -->
<svg version="1.1" xmlns="http://www.w3.org/2000/svg" width="32" height="32" viewBox="0 0 32 32">
<path fill="#4d5ae5" d="M32 16c0 0.006 0 0.013 0 0.021 0 4.412-1.791 8.405-4.686 11.293l-0 0c-2.888 2.895-6.881 4.686-11.293 4.686-0.007 0-0.015 0-0.022 0h0.001c-0.006 0-0.013 0-0.021 0-4.412 0-8.405-1.791-11.293-4.686l-0-0c-2.895-2.888-4.686-6.881-4.686-11.293 0-0.007 0-0.014 0-0.021v0.001c0-0.006 0-0.013 0-0.021 0-4.412 1.791-8.405 4.686-11.293l0-0c2.888-2.895 6.881-4.686 11.293-4.686 0.007 0 0.014 0 0.021 0h-0.001c0.006 0 0.013 0 0.021 0 4.412 0 8.405 1.791 11.293 4.686l0 0c2.895 2.888 4.686 6.881 4.686 11.293 0 0.007 0 0.015 0 0.022v-0.001z"></path>
<path fill="#f4f4fd" d="M22.397 22.4h0.003v-4.696c0-2.296-0.494-4.066-3.179-4.066-1.29 0-2.157 0.709-2.51 1.38h-0.038v-1.166h-2.545v8.547h2.651v-4.232c0-1.114 0.211-2.192 1.59-2.192 1.36 0 1.38 1.272 1.38 2.264v4.16h2.648zM9.811 13.854h2.654v8.546h-2.654v-8.546zM11.137 9.6c-0.848 0-1.536 0.688-1.536 1.537s0.688 1.552 1.536 1.552c0.849 0 1.538-0.704 1.538-1.552s-0.69-1.537-1.538-1.537z"></path>
</svg>

<svg xmlns="http://www.w3.org/2000/svg" width="32" height="32"><path fill="#4d5ae5" d="M32 16v.021a15.9 15.9 0 0 1-4.686 11.293A15.9 15.9 0 0 1 16.021 32h-.022H16h-.021a15.9 15.9 0 0 1-11.293-4.686A15.9 15.9 0 0 1 0 16.021V16v.001-.021A15.9 15.9 0 0 1 4.686 4.687 15.9 15.9 0 0 1 15.979.001H16h-.001.021a15.9 15.9 0 0 1 11.293 4.686 15.9 15.9 0 0 1 4.686 11.293v.022-.001z"/><path fill="#f4f4fd" d="M22.397 22.4h.003v-4.696c0-2.296-.494-4.066-3.179-4.066-1.29 0-2.157.709-2.51 1.38h-.038v-1.166h-2.545v8.547h2.651v-4.232c0-1.114.211-2.192 1.59-2.192 1.36 0 1.38 1.272 1.38 2.264v4.16h2.648zM9.811 13.854h2.654V22.4H9.811v-8.546zM11.137 9.6c-.848 0-1.536.688-1.536 1.537s.688 1.552 1.536 1.552c.849 0 1.538-.704 1.538-1.552S11.985 9.6 11.137 9.6z"/></svg>
